exampleSite/static/images/illustrations/solutions.svg

<?xml version="1.0" standalone="no"?>
<!DOCTYPE svg PUBLIC "-//W3C//DTD SVG 20010904//EN"
 "http://www.w3.org/TR/2001/REC-SVG-20010904/DTD/svg10.dtd">
<svg version="1.0" xmlns="http://www.w3.org/2000/svg"
 width="500.000000pt" height="500.000000pt" viewBox="0 0 500.000000 500.000000"
 preserveAspectRatio="xMidYMid meet">
<metadata>
Created by potrace 1.16, written by Peter Selinger 2001-2019
</metadata>
<g transform="translate(0.000000,500.000000) scale(0.100000,-0.100000)"
fill="#000000" stroke="none">
<path d="M3255 4381 c-55 -25 -92 -63 -118 -119 -21 -45 -22 -61 -25 -414 l-3
-368 75 0 75 0 3 361 3 361 28 24 28 24 322 0 c397 0 370 10 377 -142 l5 -103
73 -3 72 -3 0 93 c0 51 -5 113 -11 137 -13 60 -59 114 -121 145 l-52 26 -345
0 c-315 0 -350 -2 -386 -19z"/>
<path d="M806 4319 c-3 -13 -15 -114 -26 -224 -12 -110 -24 -210 -27 -222 l-5
-23 756 0 756 0 0 -250 c0 -235 1 -250 18 -250 16 0 21 21 41 193 12 105 34
284 47 396 13 112 22 206 19 209 -5 6 -194 30 -480 62 -99 11 -272 31 -385 45
-113 14 -304 36 -425 50 -121 14 -234 28 -252 31 -28 5 -33 3 -37 -17z m248
-134 c205 -25 497 -59 986 -116 151 -17 281 -33 288 -35 9 -3 11 -19 6 -61 -4
-32 -9 -61 -13 -64 -3 -3 -112 7 -241 22 -388 47 -831 99 -890 105 -30 3 -122
14 -204 25 -81 10 -155 19 -163 19 -11 0 -12 11 -8 53 8 67 12 77 26 77 6 0
102 -11 213 -25z"/>
<path d="M4054 3837 c-71 -107 -96 -162 -96 -213 0 -113 130 -180 221 -115 37
26 61 74 61 120 0 34 -77 189 -118 238 l-27 33 -41 -63z m105 -123 c96 -68 20
-217 -94 -186 -36 10 -75 64 -75 104 0 46 57 98 107 98 21 0 49 -7 62 -16z"/>
<path d="M4073 3713 c-29 -6 -63 -49 -63 -80 0 -31 25 -79 45 -87 9 -3 32 -6
50 -6 38 0 85 46 85 83 0 29 -36 87 -54 87 -8 0 -20 2 -28 4 -7 2 -23 1 -35
-1z"/>
<path d="M640 3425 l0 -405 795 0 795 0 0 305 0 305 -760 0 -760 0 0 65 0 65
760 0 760 0 0 35 0 35 -795 0 -795 0 0 -405z"/>
<path d="M3407 3522 c-114 -114 -126 -130 -112 -142 14 -12 32 2 145 116 71
71 130 135 130 142 0 34 -47 0 -163 -116z"/>
<path d="M3135 3386 c-110 -49 -134 -175 -50 -256 34 -33 40 -35 106 -35 70 0
71 0 110 42 36 39 39 46 39 102 0 54 -4 64 -32 97 -53 60 -112 77 -173 50z"/>
<path d="M4007 3359 c-92 -49 -122 -174 -62 -261 37 -52 84 -77 146 -78 121
-1 202 91 186 211 -15 116 -162 185 -270 128z m166 -38 c34 -19 67 -78 67
-119 0 -47 -27 -98 -63 -121 -54 -33 -90 -36 -141 -12 -60 30 -80 62 -80 133
-1 52 3 61 34 93 54 56 116 65 183 26z"/>
<path d="M4034 3311 c-47 -29 -64 -59 -64 -114 0 -42 5 -54 33 -82 61 -61 160
-53 200 15 67 113 -59 248 -169 181z"/>
<path d="M3060 3069 l0 -49 130 0 130 0 0 49 0 50 -42 -24 c-28 -16 -59 -25
-88 -25 -29 0 -60 9 -87 25 l-43 24 0 -50z"/>
<path d="M3032 2968 l3 -33 155 0 155 0 3 33 3 32 -161 0 -161 0 3 -32z"/>
<path d="M2810 2860 l0 -50 845 0 845 0 0 50 0 50 -845 0 -845 0 0 -50z"/>
<path d="M1383 2188 c-44 -46 -56 -82 -42 -123 11 -30 9 -40 -23 -107 -42 -88
-111 -182 -175 -237 -40 -34 -49 -38 -70 -28 -20 9 -28 6 -58 -23 -38 -37 -61
-91 -48 -113 33 -58 410 -331 472 -343 29 -6 37 -2 82 46 50 53 63 95 34 106
-8 4 -15 11 -15 18 0 10 57 136 65 145 3 2 22 -11 43 -30 21 -19 54 -46 73
-61 19 -14 90 -72 159 -129 69 -56 139 -114 157 -128 160 -130 296 -231 313
-231 20 0 62 45 87 93 15 30 15 31 -18 58 -53 44 -264 184 -540 359 -57 36
-124 80 -151 98 -26 17 -52 32 -58 32 -21 0 -8 19 51 79 53 54 65 61 88 56 24
-5 34 1 70 40 23 25 47 57 53 71 12 25 10 29 -32 66 -47 41 -75 61 -230 167
-119 80 -210 137 -236 145 -14 4 -29 -3 -51 -26z"/>
<path d="M3259 1875 c-53 -17 -146 -95 -155 -130 -5 -21 -12 -23 -92 -27 -72
-3 -94 -9 -128 -30 -78 -50 -134 -146 -134 -232 0 -134 102 -250 240 -271 31
-5 56 -17 80 -41 66 -63 179 -96 255 -75 21 6 41 8 43 6 9 -9 -28 -139 -45
-157 -15 -17 -15 -18 18 -12 88 16 187 80 229 150 35 56 59 47 99 -38 41 -88
114 -162 204 -206 35 -17 72 -41 83 -53 41 -46 182 -99 262 -99 l44 0 -35 39
c-34 38 -62 81 -55 85 2 1 21 8 43 15 162 56 275 221 275 402 0 206 -118 363
-320 425 -53 16 -160 18 -211 4 -34 -10 -37 -8 -95 48 -78 76 -136 102 -231
107 -63 2 -79 7 -101 28 -70 65 -184 91 -273 62z m1044 -507 c8 -12 7 -21 -2
-32 -11 -13 -40 -16 -182 -16 l-169 0 6 28 c4 15 9 30 11 35 3 4 77 6 165 5
137 -3 162 -5 171 -20z m-3 -143 c7 -8 10 -22 6 -30 -5 -13 -38 -15 -228 -15
l-222 0 29 30 29 30 187 0 c153 0 189 -3 199 -15z m-4 -139 c15 -12 17 -18 8
-33 -10 -16 -32 -18 -254 -21 -235 -2 -270 1 -270 29 0 4 7 15 16 23 22 23
470 24 500 2z"/>
<path d="M988 1080 c-184 -17 -218 -36 -218 -125 0 -48 -3 -55 -20 -55 -34 0
-71 -23 -87 -54 -17 -33 -29 -141 -20 -178 l6 -23 483 8 c266 5 487 13 492 17
5 5 9 40 9 77 1 88 -28 148 -75 161 -30 7 -33 13 -43 63 -14 70 -20 78 -64 96
-44 19 -316 26 -463 13z"/>
</g>
</svg>

<?xml version="1.0" standalone="no"?>
<!DOCTYPE svg PUBLIC "-//W3C//DTD SVG 1.0//EN" "http://www.w3.org/TR/2001/REC-SVG-20010904/DTD/svg10.dtd">
<svg xmlns="http://www.w3.org/2000/svg" xmlns:xlink="http://www.w3.org/1999/xlink" id="body_1" width="300" height="300">

<g transform="matrix(0.6 0 0 0.6 0 0)">
	<g transform="matrix(0.1 0 -0 -0.1 0 500)">
        <path d="M3255 4381C 3200 4356 3163 4318 3137 4262C 3116 4217 3115 4201 3112 3848L3112 3848L3109 3480L3184 3480L3259 3480L3262 3841L3265 4202L3293 4226L3321 4250L3643 4250C 4040 4250 4013 4260 4020 4108L4020 4108L4025 4005L4098 4002L4170 3999L4170 4092C 4170 4143 4165 4205 4159 4229C 4146 4289 4100 4343 4038 4374L4038 4374L3986 4400L3641 4400C 3326 4400 3291 4398 3255 4381z" stroke="none" fill="#000000" fill-rule="nonzero" />
        <path d="M806 4319C 803 4306 791 4205 780 4095C 768 3985 756 3885 753 3873L753 3873L748 3850L1504 3850L2260 3850L2260 3600C 2260 3365 2261 3350 2278 3350C 2294 3350 2299 3371 2319 3543C 2331 3648 2353 3827 2366 3939C 2379 4051 2388 4145 2385 4148C 2380 4154 2191 4178 1905 4210C 1806 4221 1633 4241 1520 4255C 1407 4269 1216 4291 1095 4305C 974 4319 861 4333 843 4336C 815 4341 810 4339 806 4319zM1054 4185C 1259 4160 1551 4126 2040 4069C 2191 4052 2321 4036 2328 4034C 2337 4031 2339 4015 2334 3973C 2330 3941 2325 3912 2321 3909C 2318 3906 2209 3916 2080 3931C 1692 3978 1249 4030 1190 4036C 1160 4039 1068 4050 986 4061C 905 4071 831 4080 823 4080C 812 4080 811 4091 815 4133C 823 4200 827 4210 841 4210C 847 4210 943 4199 1054 4185z" stroke="none" fill="#000000" fill-rule="nonzero" />
        <path d="M4054 3837C 3983 3730 3958 3675 3958 3624C 3958 3511 4088 3444 4179 3509C 4216 3535 4240 3583 4240 3629C 4240 3663 4163 3818 4122 3867L4122 3867L4095 3900L4054 3837zM4159 3714C 4255 3646 4179 3497 4065 3528C 4029 3538 3990 3592 3990 3632C 3990 3678 4047 3730 4097 3730C 4118 3730 4146 3723 4159 3714z" stroke="none" fill="#000000" fill-rule="nonzero" />
        <path d="M4073 3713C 4044 3707 4010 3664 4010 3633C 4010 3602 4035 3554 4055 3546C 4064 3543 4087 3540 4105 3540C 4143 3540 4190 3586 4190 3623C 4190 3652 4154 3710 4136 3710C 4128 3710 4116 3712 4108 3714C 4101 3716 4085 3715 4073 3713z" stroke="none" fill="#000000" fill-rule="nonzero" />
        <path d="M640 3425L640 3020L1435 3020L2230 3020L2230 3325L2230 3630L1470 3630L710 3630L710 3695L710 3760L1470 3760L2230 3760L2230 3795L2230 3830L1435 3830L640 3830L640 3425z" stroke="none" fill="#000000" fill-rule="nonzero" />
        <path d="M3407 3522C 3293 3408 3281 3392 3295 3380C 3309 3368 3327 3382 3440 3496C 3511 3567 3570 3631 3570 3638C 3570 3672 3523 3638 3407 3522z" stroke="none" fill="#000000" fill-rule="nonzero" />
        <path d="M3135 3386C 3025 3337 3001 3211 3085 3130C 3119 3097 3125 3095 3191 3095C 3261 3095 3262 3095 3301 3137C 3337 3176 3340 3183 3340 3239C 3340 3293 3336 3303 3308 3336C 3255 3396 3196 3413 3135 3386z" stroke="none" fill="#000000" fill-rule="nonzero" />
        <path d="M4007 3359C 3915 3310 3885 3185 3945 3098C 3982 3046 4029 3021 4091 3020C 4212 3019 4293 3111 4277 3231C 4262 3347 4115 3416 4007 3359zM4173 3321C 4207 3302 4240 3243 4240 3202C 4240 3155 4213 3104 4177 3081C 4123 3048 4087 3045 4036 3069C 3976 3099 3956 3131 3956 3202C 3955 3254 3959 3263 3990 3295C 4044 3351 4106 3360 4173 3321z" stroke="none" fill="#000000" fill-rule="nonzero" />
        <path d="M4034 3311C 3987 3282 3970 3252 3970 3197C 3970 3155 3975 3143 4003 3115C 4064 3054 4163 3062 4203 3130C 4270 3243 4144 3378 4034 3311z" stroke="none" fill="#000000" fill-rule="nonzero" />
        <path d="M3060 3069L3060 3020L3190 3020L3320 3020L3320 3069L3320 3119L3278 3095C 3250 3079 3219 3070 3190 3070C 3161 3070 3130 3079 3103 3095L3103 3095L3060 3119L3060 3069z" stroke="none" fill="#000000" fill-rule="nonzero" />
        <path d="M3032 2968L3035 2935L3190 2935L3345 2935L3348 2968L3351 3000L3190 3000L3029 3000L3032 2968z" stroke="none" fill="#000000" fill-rule="nonzero" />
        <path d="M2810 2860L2810 2810L3655 2810L4500 2810L4500 2860L4500 2910L3655 2910L2810 2910L2810 2860z" stroke="none" fill="#000000" fill-rule="nonzero" />
        <path d="M1383 2188C 1339 2142 1327 2106 1341 2065C 1352 2035 1350 2025 1318 1958C 1276 1870 1207 1776 1143 1721C 1103 1687 1094 1683 1073 1693C 1053 1702 1045 1699 1015 1670C 977 1633 954 1579 967 1557C 1000 1499 1377 1226 1439 1214C 1468 1208 1476 1212 1521 1260C 1571 1313 1584 1355 1555 1366C 1547 1370 1540 1377 1540 1384C 1540 1394 1597 1520 1605 1529C 1608 1531 1627 1518 1648 1499C 1669 1480 1702 1453 1721 1438C 1740 1424 1811 1366 1880 1309C 1949 1253 2019 1195 2037 1181C 2197 1051 2333 950 2350 950C 2370 950 2412 995 2437 1043C 2452 1073 2452 1074 2419 1101C 2366 1145 2155 1285 1879 1460C 1822 1496 1755 1540 1728 1558C 1702 1575 1676 1590 1670 1590C 1649 1590 1662 1609 1721 1669C 1774 1723 1786 1730 1809 1725C 1833 1720 1843 1726 1879 1765C 1902 1790 1926 1822 1932 1836C 1944 1861 1942 1865 1900 1902C 1853 1943 1825 1963 1670 2069C 1551 2149 1460 2206 1434 2214C 1420 2218 1405 2211 1383 2188z" stroke="none" fill="#000000" fill-rule="nonzero" />
        <path d="M3259 1875C 3206 1858 3113 1780 3104 1745C 3099 1724 3092 1722 3012 1718C 2940 1715 2918 1709 2884 1688C 2806 1638 2750 1542 2750 1456C 2750 1322 2852 1206 2990 1185C 3021 1180 3046 1168 3070 1144C 3136 1081 3249 1048 3325 1069C 3346 1075 3366 1077 3368 1075C 3377 1066 3340 936 3323 918C 3308 901 3308 900 3341 906C 3429 922 3528 986 3570 1056C 3605 1112 3629 1103 3669 1018C 3710 930 3783 856 3873 812C 3908 795 3945 771 3956 759C 3997 713 4138 660 4218 660L4218 660L4262 660L4227 699C 4193 737 4165 780 4172 784C 4174 785 4193 792 4215 799C 4377 855 4490 1020 4490 1201C 4490 1407 4372 1564 4170 1626C 4117 1642 4010 1644 3959 1630C 3925 1620 3922 1622 3864 1678C 3786 1754 3728 1780 3633 1785C 3570 1787 3554 1792 3532 1813C 3462 1878 3348 1904 3259 1875zM4303 1368C 4311 1356 4310 1347 4301 1336C 4290 1323 4261 1320 4119 1320L4119 1320L3950 1320L3956 1348C 3960 1363 3965 1378 3967 1383C 3970 1387 4044 1389 4132 1388C 4269 1385 4294 1383 4303 1368zM4300 1225C 4307 1217 4310 1203 4306 1195C 4301 1182 4268 1180 4078 1180L4078 1180L3856 1180L3885 1210L3914 1240L4101 1240C 4254 1240 4290 1237 4300 1225zM4296 1086C 4311 1074 4313 1068 4304 1053C 4294 1037 4272 1035 4050 1032C 3815 1030 3780 1033 3780 1061C 3780 1065 3787 1076 3796 1084C 3818 1107 4266 1108 4296 1086z" stroke="none" fill="#000000" fill-rule="nonzero" />
        <path d="M988 1080C 804 1063 770 1044 770 955C 770 907 767 900 750 900C 716 900 679 877 663 846C 646 813 634 705 643 668L643 668L649 645L1132 653C 1398 658 1619 666 1624 670C 1629 675 1633 710 1633 747C 1634 835 1605 895 1558 908C 1528 915 1525 921 1515 971C 1501 1041 1495 1049 1451 1067C 1407 1086 1135 1093 988 1080z" stroke="none" fill="#000000" fill-rule="nonzero" />
	</g>
</g>
</svg>
